src/images/bnft-fill.svg

<svg version="1.0" xmlns="http://www.w3.org/2000/svg"  width="300.000000pt" height="301.000000pt" viewBox="0 0 300.000000 301.000000"  preserveAspectRatio="xMidYMid meet">  <g transform="translate(0.000000,301.000000) scale(0.100000,-0.100000)" fill="#000000" stroke="none"> 
 <path d="M0 1505 l0 -1505 1500 0 1500 0 0 1505 0 1505 -1500 0 -1500 0 0 -1505z m661 1130 c19 -8 63 -36 99 -60 36 -25 72 -50 80 -55 8 -6 58 -40 110 -76 52 -36 110 -75 129 -87 22 -14 29 -22 20 -25 -148 -46 -390 -237 -491 -390 -44 -65 -58 -66 -58 -5 0 18 -4 54 -10 80 -5 26 -12 68 -14 93 -2 25 -8 72 -14 105 -54 310 -48 370 37 415 44 23 69 24 112 5z m1800 -8 c19 -12 42 -38 52 -57 21 -40 19 -78 -15 -295 -10 -71 -21 -148 -24 -170 -2 -22 -8 -65 -13 -95 -6 -30 -15 -95 -21 -145 -7 -49 -19 -127 -27 -173 -12 -67 -12 -90 -2 -120 7 -20 13 -46 15 -57 1 -11 8 -58 14 -104 28 -191 -36 -441 -162 -627 -42 -63 -179 -200 -242 -242 -54 -37 -206 -115 -206 -107 0 3 -10 1 -21 -6 -118 -63 -500 -63 -618 0 -11 7 -21 9 -21 6 0 -8 -152 70 -206 107 -68 46 -205 185 -248 252 -126 197 -184 427 -156 617 6 46 14 95 15 109 18 127 132 339 247 460 118 124 327 241 473 266 17 2 54 9 84 14 71 13 175 13 242 0 117 -23 117 -23 188 22 36 23 68 45 71 48 3 3 59 41 125 86 66 44 165 111 219 148 55 37 109 72 120 76 38 15 82 10 117 -13z"/> 
 <path d="M563 2606 c-57 -26 -75 -93 -53 -203 5 -26 12 -68 15 -93 21 -162 25 -197 29 -215 2 -11 7 -44 11 -72 8 -58 16 -64 43 -31 97 121 251 250 381 321 29 15 49 32 46 37 -6 9 -232 165 -337 232 -54 35 -94 42 -135 24z"/> 
 <path d="M2336 2604 c-9 -8 -16 -13 -16 -9 0 3 -30 -16 -67 -42 -38 -26 -113 -77 -168 -115 -136 -92 -149 -102 -153 -110 -2 -5 -8 -8 -14 -8 -6 0 -40 -21 -77 -47 -74 -53 -65 -52 -292 -38 -83 5 -147 4 -191 -4 -67 -11 -188 -48 -243 -72 -55 -25 -155 -90 -155 -101 0 -6 -3 -9 -6 -5 -14 13 -156 -129 -213 -213 -39 -57 -100 -180 -119 -240 -23 -71 -42 -198 -42 -282 0 -136 24 -242 85 -374 108 -233 269 -385 510 -482 111 -45 174 -55 330 -55 132 1 160 4 238 27 243 72 429 216 550 425 64 109 106 236 125 376 8 63 -7 238 -27 310 -13 49 -14 126 -1 182 10 41 33 187 50 318 10 72 35 249 46 320 21 137 21 151 9 181 -26 64 -119 98 -159 58z m-1239 -819 c73 -31 113 -92 113 -175 0 -121 -88 -205 -204 -197 -166 12 -244 205 -132 326 17 18 45 39 61 47 41 18 118 17 162 -1z m939 -18 c52 -35 77 -89 76 -162 0 -70 -26 -122 -77 -157 -91 -64 -233 -33 -282 61 -40 78 -27 188 28 237 48 43 81 54 149 51 51 -2 74 -9 106 -30z m-885 -490 c31 -24 38 -52 32 -128 -5 -70 -4 -77 19 -102 14 -15 40 -32 57 -38 29 -10 39 -8 94 21 71 37 115 37 167 -1 41 -31 102 -30 135 1 35 33 49 83 36 122 -18 50 -13 78 18 109 32 31 71 38 115 18 62 -28 83 -196 36 -293 -65 -135 -216 -202 -366 -161 -61 17 -68 17 -126 0 -102 -28 -212 -5 -289 63 -102 90 -129 281 -53 372 21 25 33 30 67 30 23 0 49 -6 58 -13z"/> 
 <path d="M952 1767 c-18 -5 -46 -25 -62 -43 -68 -78 -62 -172 16 -244 41 -38 47 -40 104 -40 72 0 109 17 146 66 36 46 44 125 19 174 -42 82 -131 117 -223 87z"/> 
 <path d="M1840 1757 c-99 -52 -120 -199 -38 -273 38 -35 63 -44 122 -44 102 0 160 57 165 163 3 74 -26 124 -91 156 -57 27 -104 27 -158 -2z"/> 
 <path d="M1047 1252 c-26 -29 -37 -70 -37 -143 0 -137 88 -241 225 -268 30 -6 66 -6 88 -1 20 4 37 6 37 4 0 -3 17 4 38 15 34 17 40 18 66 4 15 -8 40 -17 55 -19 14 -2 36 -6 48 -9 28 -6 106 12 153 36 110 55 169 201 132 324 -17 57 -24 65 -63 71 -25 4 -41 1 -58 -13 -24 -20 -25 -25 -15 -130 6 -61 6 -61 -35 -102 -37 -37 -46 -41 -90 -41 -39 0 -56 6 -86 30 -42 33 -94 40 -116 14 -39 -48 -126 -58 -180 -21 -57 39 -66 74 -46 191 10 59 -76 102 -116 58z"/> 
 </g> 
 </svg>

<?xml version="1.0" standalone="no"?>
<!DOCTYPE svg PUBLIC "-//W3C//DTD SVG 1.0//EN" "http://www.w3.org/TR/2001/REC-SVG-20010904/DTD/svg10.dtd">
<svg xmlns="http://www.w3.org/2000/svg" xmlns:xlink="http://www.w3.org/1999/xlink" id="body_1" width="500" height="501">

<g transform="matrix(1.664452 0 0 1.664452 0.66444993 -0)">
	<g transform="matrix(0.1 0 -0 -0.1 0 301)">
        <path d="M0 1505L0 0L1500 0L3000 0L3000 1505L3000 3010L1500 3010L0 3010L0 1505zM661 2635C 680 2627 724 2599 760 2575C 796 2550 832 2525 840 2520C 848 2514 898 2480 950 2444C 1002 2408 1060 2369 1079 2357C 1101 2343 1108 2335 1099 2332C 951 2286 709 2095 608 1942C 564 1877 550 1876 550 1937C 550 1955 546 1991 540 2017C 535 2043 528 2085 526 2110C 524 2135 518 2182 512 2215C 458 2525 464 2585 549 2630C 593 2653 618 2654 661 2635zM2461 2627C 2480 2615 2503 2589 2513 2570C 2534 2530 2532 2492 2498 2275C 2488 2204 2477 2127 2474 2105C 2472 2083 2466 2040 2461 2010C 2455 1980 2446 1915 2440 1865C 2433 1816 2421 1738 2413 1692C 2401 1625 2401 1602 2411 1572C 2418 1552 2424 1526 2426 1515C 2427 1504 2434 1457 2440 1411C 2468 1220 2404 970 2278 784C 2236 721 2099 584 2036 542C 1982 505 1830 427 1830 435C 1830 438 1820 436 1809 429C 1691 366 1309 366 1191 429C 1180 436 1170 438 1170 435C 1170 427 1018 505 964 542C 896 588 759 727 716 794C 590 991 532 1221 560 1411C 566 1457 574 1506 575 1520C 593 1647 707 1859 822 1980C 940 2104 1149 2221 1295 2246C 1312 2248 1349 2255 1379 2260C 1450 2273 1554 2273 1621 2260C 1738 2237 1738 2237 1809 2282C 1845 2305 1877 2327 1880 2330C 1883 2333 1939 2371 2005 2416C 2071 2460 2170 2527 2224 2564C 2279 2601 2333 2636 2344 2640C 2382 2655 2426 2650 2461 2627z" stroke="none" fill="#000000" fill-rule="nonzero" />
        <path d="M563 2606C 506 2580 488 2513 510 2403C 515 2377 522 2335 525 2310C 546 2148 550 2113 554 2095C 556 2084 561 2051 565 2023C 573 1965 581 1959 608 1992C 705 2113 859 2242 989 2313C 1018 2328 1038 2345 1035 2350C 1029 2359 803 2515 698 2582C 644 2617 604 2624 563 2606z" stroke="none" fill="#000000" fill-rule="nonzero" />
        <path d="M2336 2604C 2327 2596 2320 2591 2320 2595C 2320 2598 2290 2579 2253 2553C 2215 2527 2140 2476 2085 2438C 1949 2346 1936 2336 1932 2328C 1930 2323 1924 2320 1918 2320C 1912 2320 1878 2299 1841 2273C 1767 2220 1776 2221 1549 2235C 1466 2240 1402 2239 1358 2231C 1291 2220 1170 2183 1115 2159C 1060 2134 960 2069 960 2058C 960 2052 957 2049 954 2053C 940 2066 798 1924 741 1840C 702 1783 641 1660 622 1600C 599 1529 580 1402 580 1318C 580 1182 604 1076 665 944C 773 711 934 559 1175 462C 1286 417 1349 407 1505 407C 1637 408 1665 411 1743 434C 1986 506 2172 650 2293 859C 2357 968 2399 1095 2418 1235C 2426 1298 2411 1473 2391 1545C 2378 1594 2377 1671 2390 1727C 2400 1768 2423 1914 2440 2045C 2450 2117 2475 2294 2486 2365C 2507 2502 2507 2516 2495 2546C 2469 2610 2376 2644 2336 2604zM1097 1785C 1170 1754 1210 1693 1210 1610C 1210 1489 1122 1405 1006 1413C 840 1425 762 1618 874 1739C 891 1757 919 1778 935 1786C 976 1804 1053 1803 1097 1785zM2036 1767C 2088 1732 2113 1678 2112 1605C 2112 1535 2086 1483 2035 1448C 1944 1384 1802 1415 1753 1509C 1713 1587 1726 1697 1781 1746C 1829 1789 1862 1800 1930 1797C 1981 1795 2004 1788 2036 1767zM1151 1277C 1182 1253 1189 1225 1183 1149C 1178 1079 1179 1072 1202 1047C 1216 1032 1242 1015 1259 1009C 1288 999 1298 1001 1353 1030C 1424 1067 1468 1067 1520 1029C 1561 998 1622 999 1655 1030C 1690 1063 1704 1113 1691 1152C 1673 1202 1678 1230 1709 1261C 1741 1292 1780 1299 1824 1279C 1886 1251 1907 1083 1860 986C 1795 851 1644 784 1494 825C 1433 842 1426 842 1368 825C 1266 797 1156 820 1079 888C 977 978 950 1169 1026 1260C 1047 1285 1059 1290 1093 1290C 1116 1290 1142 1284 1151 1277z" stroke="none" fill="#000000" fill-rule="nonzero" />
        <path d="M952 1767C 934 1762 906 1742 890 1724C 822 1646 828 1552 906 1480C 947 1442 953 1440 1010 1440C 1082 1440 1119 1457 1156 1506C 1192 1552 1200 1631 1175 1680C 1133 1762 1044 1797 952 1767z" stroke="none" fill="#000000" fill-rule="nonzero" />
        <path d="M1840 1757C 1741 1705 1720 1558 1802 1484C 1840 1449 1865 1440 1924 1440C 2026 1440 2084 1497 2089 1603C 2092 1677 2063 1727 1998 1759C 1941 1786 1894 1786 1840 1757z" stroke="none" fill="#000000" fill-rule="nonzero" />
        <path d="M1047 1252C 1021 1223 1010 1182 1010 1109C 1010 972 1098 868 1235 841C 1265 835 1301 835 1323 840C 1343 844 1360 846 1360 844C 1360 841 1377 848 1398 859C 1432 876 1438 877 1464 863C 1479 855 1504 846 1519 844C 1533 842 1555 838 1567 835C 1595 829 1673 847 1720 871C 1830 926 1889 1072 1852 1195C 1835 1252 1828 1260 1789 1266C 1764 1270 1748 1267 1731 1253C 1707 1233 1706 1228 1716 1123C 1722 1062 1722 1062 1681 1021C 1644 984 1635 980 1591 980C 1552 980 1535 986 1505 1010C 1463 1043 1411 1050 1389 1024C 1350 976 1263 966 1209 1003C 1152 1042 1143 1077 1163 1194C 1173 1253 1087 1296 1047 1252z" stroke="none" fill="#000000" fill-rule="nonzero" />
	</g>
</g>
</svg>
